X:1
T:Dear Savior Stretch Thy Loving Arms
T:Julian Kennedy Smyth (1856-1921)
T:Dear Savior Stretch Thy Loving Arms
T:Public Domain
T:Public Domain
T:Public Domain
C:Julian Kennedy Smyth (1856-1921)
Z:Public Domain
%%score 1 ( 2 3 ) ( 4 5 )
L:1/8
M:3/4
K:Eb
V:1 treble 
V:2 treble 
V:3 treble 
V:4 bass 
V:5 bass 
V:1
 G2 | G4 G2 | B4 B2 | G4 G2 | B4 B2 | G4 G2 | (E3 F) G2 | F6- | F2 z2 G2 | G4 G2 | B4 B2 | G4 G2 | %12
w: 1.~Dear|Sav- ior,|stretch Thy|lov- ing|arms A-|bove the|storm- * y|sea,|* Where,|tossed 'mid|dark and|an- gry|
w: 2.~O|as Thou|didst on|Gal- i-|lee The|wa- ters|calm * at|will,|* When|tor- rents|raised by|e- vil|
w: 3.~Be|Thou my|Pi- lot|thru the|mists And|storms that|dark- * ly|rise,|* As|o'er life's|vast and|dan- gerous|
w: 4.~No|hand but|Thine can|safe- ly|guide The|wear- ied|mar- * in-|er;|* No|love but|Thine can|sol- ace|
 e4 e2 | d2 B2 G2 | D4 d2 | (d6 | G2) z2 G2 | A4 A2 | (A2 B2) A2 | G4 G2 | G4 G2 | c4 c2 | c4 c2 | %23
w: waves, The|mar- in- er|calls to|Thee.|* Up-|on that|fierce * and|an- gry|main My|poor weak|bark doth|
w: breath The|sink- ing *|~ ship|did|* fill:|So now|in * my|storm sha-|ken soul|A- wake|with strength|
w: sea My|frail bark *|~ light-|ly|* flies.|With Thee|my * soul|se- cure-|ly rests|From e-|vil's blight|
w: bring, O|Christ, dear *|~ Com-|for-|* ter!|Now trust-|ing * in|Thy ten-|der care|We fear|no dark|
 (=Bc d4- | d2) z2 G2 | G4 G2 | B4 B2 | G4 G2 | B4 B2 | (G3 A) B2 | B4 F2 | G6 |] %32
w: ride, * *|* O|what am|I 'mid|such strong|foes With-|out * Thee|by my|side?|
w: di- * *|* vine,|And whis-|per 'peace'|to war-|ring winds,|And * let|Thy glor-|y|
w: re- * *|* stored;|And isles|of green|and fra-|grant seas|Bring * peace|and sweet|re-|
w: un- * *|* rest,|Life's storms|are passed;|our trou-|bled souls|Lie * pil-|lowed on|Thy|
V:2
 [EG]2 | [EG]4 [EG]2 | [FB]4 [FB]2 | [EG]4 [EG]2 | [FB]4 [FB]2 | [EG]4 [EG]2 | E3 F [EG]2 | %7
 [DF]6- | [DF]2 z2 G2 | [EG]4 [EG]2 | [FB]4 [FB]2 | [EG]4 [EG]2 | [EGAe]4 [EGAe]2 | [Dd]2 B2 G2 | %14
 [^F,CD]4 d2 | [DG-Bd]6 | G2 z2 G2 | [CEA-]2 A2 A2 | A2 B2 A2 | [=B,FG]4 z2 | z4 [=B,FG]2 | %21
 [EGc]4 z2 | z4 [EGc]2 | [D=B][Ec] [Fd]4- | [Fd]2 z2 G2 | e3 d c2 | B3 c B2 | e3 d c2 | B3 c B2 | %29
 e3 d [EG]2 | [DAB]4 [DAB]2 | [EGe]6 |] %32
V:3
 x2 | x6 | x6 | x6 | x6 | x6 | x6 | x6 | x6 | x6 | x6 | x6 | x6 | x6 | x6 | x6 | x6 | x6 | x6 | %19
 x6 | x6 | x6 | x6 | x6 | x6 | G6 | [DA]6 | G6 | [DA]6 | G6 | x6 | x6 |] %32
V:4
 [E,B,]2 | B,3 C B,2 | B,3 C B,2 | B,3 C B,2 | B,3 C B,2 | B,3 C B,2 | [C,=A,]4 [F,A,]2 | %7
 B,,4 B,2 | B,6 | B,3 C B,2 | B,3 C B,2 | B,3 C B,2 | [C,G,A,]4 C,2 | [D,G,B,]2 z4 | %14
 [D,,=A,,D,]4 z2 | [G,,D,G,]6- | [G,,D,G,]4 z2 | [G,,G,]2 z4 | z6 | [G,,G,]4 z D,/E,/ | %20
 F,2 E,2 D,2 | G,,4 z C,/D,/ | E,2 D,2 C,2 | G,,4 G,2 | G,6 | E,4 B,,2 | F,4 B,,2 | E,4 B,,2 | %28
 F,4 B,,2 | E,4 B,,2 | F,3 G, F,2 | [E,B,]6 |] %32
V:5
 x2 | E,6 | D,6 | E,6 | D,6 | E,6 | x6 | x6 | x6 | E,6 | D,6 | E,6 | x6 | x6 | x6 | x6 | x6 | x6 | %18
 x6 | x6 | x6 | x6 | x6 | x6 | x6 | B,6 | x6 | B,6 | x6 | B,6 | x6 | x6 |] %32

